src/images/earn-three.svg

<svg width="45" height="56" viewBox="0 0 45 56" fill="none" xmlns="http://www.w3.org/2000/svg">
<path d="M29.6499 22.4157C34.605 23.2022 38.4022 25.0112 41.0413 27.8427C43.6804 30.6217 45 34.0824 45 38.2247C45 41.4232 44.1382 44.3858 42.4147 47.1124C40.6912 49.7865 38.0521 51.9363 34.4973 53.5618C30.9964 55.1873 26.6876 56 21.5709 56C17.5853 56 13.6535 55.5019 9.77558 54.5056C5.95153 53.4569 2.693 51.9888 0 50.1011L5.08977 40.3483C7.24416 41.9214 9.72172 43.1536 12.5224 44.0449C15.377 44.8839 18.2855 45.3034 21.2478 45.3034C24.5332 45.3034 27.1185 44.7004 29.0036 43.4944C30.8887 42.236 31.8312 40.4794 31.8312 38.2247C31.8312 33.7154 28.3034 31.4607 21.2478 31.4607H15.2693V23.0449L26.9031 10.2247H2.82765V0H42.4147V8.25843L29.6499 22.4157Z" fill="white"/>
</svg>

<svg width="17" height="28" fill="none" xmlns="http://www.w3.org/2000/svg"><path d="M29.65 22.416c4.955.786 8.752 2.595 11.391 5.427C43.681 30.622 45 34.083 45 38.225c0 3.198-.862 6.16-2.585 8.887-1.724 2.674-4.363 4.824-7.918 6.45-3.5 1.625-7.81 2.438-12.926 2.438-3.986 0-7.918-.498-11.795-1.494C5.952 53.456 2.693 51.989 0 50.1l5.09-9.753c2.154 1.573 4.632 2.806 7.432 3.697a30.788 30.788 0 008.726 1.258c3.285 0 5.87-.603 7.756-1.809 1.885-1.258 2.827-3.015 2.827-5.27 0-4.509-3.528-6.763-10.583-6.763h-5.979v-8.416l11.634-12.82H2.828V0h39.587v8.258L29.65 22.416z" fill="#fff"/></svg>
